X:317
T:10th H.L.I. Crossing The Rhine
C:Joe Buchanan's Scottish Tome - Page 091.0
I:091 0
Z:Carl Allison
C:P. M. Donald Shaw Ramsay
R:March
L:1/8
M:6/8
K:D
d | "D"d>fA    (d2f) | "D"f>ga f>ed | "A"c2e     A>ce   | e>fg     "A7"f>ed  |
    "D"d>fA    (d2f) | f>ga    f>ed | "A7"c>de   A>ce   | "D"{c}d3 d>d      :|
g | "D"{g}a2f  d2f   | (f>a)f  f>ed | "A"c>de    A>ce   | "D"e>fg  "A7"f>ed  |
    "D"{g}a2f  d2f   | (f>a)f  f>ed | "A7"c>de   A>ce   | "D"{c}d3 d>d      :|
A | "D"d3      A>df  | (f>a)f  f>ed | "A"c3      (A>ce) | "D"e>fg  "A7"f>ed  |
    "D"d3      A>df  | (f>a)f  f>ed | "A7"(c>de) A>ce   | "D"{c}d3 d>d      :|
g | "D"{g}a>Aa A>df  | (f>a)f  f>ed | "A"(c>de)  A>ce   | "D"e>fg  "A7"f>ed  |
    "D"a>Aa    A>df  | (f>a)f  f>ed | "A7"(c>de) A>ce   | "D"{c}d3 d>d g       |
    "D"{g}a>Aa A>df  | (f>a)f  f>ed | "A"(c>de)  A>ce   | "D"e>fg  "A7"f>ed  |
    "D"a>Aa    A>df  | (f>a)f  f>ed | "A7"(c>de) A>ce   | "D"{c}d3 d>d       |]

